X:288
T:no name
R:jig
Z:id:hn-jig-288
M:6/8
K:Ador
~e3 ~A3|~d3 G2F|EAA ~A3|B2A GBd|
~e3 ~A3|~d3 G2F|EAA ~A3|BAG A3:|
|:eaa aga|bgg agd|eaa aga|bgf g2d|
eaa aga|bgg agd|Bdd ged|BAG A3:|

